X:1580
T:Don Side
O:england
M:4/4
L:1/8
C:Trad.
S:Barra MacNeils
R:Strathspey
K:G
E|:D<GB>G A>GE<A|D<GB>G A>GB<d|c>AB<G A>GE<e|d<g B<A B<G G2:||
f|:g<dg>B A>GE<f|g<d g<d g<d ga|b/2a/2g/2f/2 ge|d<g B>A B<G G2:||
f|:(3ggg b>g a>ge<g|(3ggg bg dgbg|a>gb<g a>ge<g|d<g BA B<G G2:||
(3DEF|:G>D B,<D E<A, A,2|{DEF}G>DB,<D G,>DB,<D|C<E B,D A,2 A,D|
|1G/2F/2E/2D/2 GD B,<G, G,2:|2G/2F/2E/2D/2 C/2B,/2A,/2B,/2 >G,2 G,2||
